X:1
T:When Jesus Wept (Round) 
C:William Billings
Q:1/4=120  
M:3/4
L:1/8
K:Eb
z4 "^1" C2 |G4 F2 |(G3/2A/ B2) E2 |(G3/2F/ E2) D2 |
w:When Je-sus wept,__ a fall---ing
C4 "^2"  C2 |C4 B,2 |(E2 D2) C2 |C4 G,2 |
w:tear In mer-cy flowed_ be-yond all
C4 "^3"  G2 |(c2 G2) B2 |(E2 F2) G2 |G4 G2 |
w:bound When Je--sus groaned_ a trem-bling
G4 "^4"  E2 |(G3/2F/ E2) D2 |(E2 A2) G2 |(E3/2D/ C2) B,2 | C4 |]
w:fear seized all__ the guilt_ y world__ a-round.
